assets/img/jetsmart/circulodeoro.svg

<svg width="432" height="432" viewBox="0 0 432 432" fill="none" xmlns="http://www.w3.org/2000/svg">
<circle cx="215.68" cy="215.68" r="215.68" fill="#24719C" fill-opacity="0.84"/>
<circle cx="215.678" cy="215.678" r="148.764" fill="#4B98C3" fill-opacity="0.77" stroke="#F7F7F7" stroke-width="6.08327"/>
<circle cx="215.402" cy="215.402" r="75.4878" fill="#7EC5EE" fill-opacity="0.83" stroke="#F7F7F7" stroke-width="6.08327"/>
<path d="M189.6 212.196C189.6 213.921 189.121 215.241 188.163 216.156C187.204 217.07 185.633 217.527 183.451 217.527H180.752V223.301H177.699V206.71H183.451C185.633 206.71 187.204 207.16 188.163 208.059C189.121 208.944 189.6 210.323 189.6 212.196ZM186.459 212.174C186.459 211.628 186.4 211.178 186.282 210.825C186.179 210.456 186.002 210.161 185.751 209.94C185.515 209.718 185.206 209.564 184.822 209.475C184.439 209.372 183.982 209.32 183.451 209.32H180.752V215.028H183.451C183.967 215.028 184.409 214.991 184.778 214.917C185.161 214.828 185.479 214.681 185.729 214.475C185.98 214.253 186.164 213.958 186.282 213.59C186.4 213.221 186.459 212.749 186.459 212.174ZM203.036 216.687C203.036 217.925 202.919 218.98 202.683 219.85C202.461 220.72 202.107 221.435 201.621 221.996C201.149 222.556 200.537 222.969 199.785 223.234C199.047 223.485 198.162 223.61 197.13 223.61C196.098 223.61 195.206 223.485 194.454 223.234C193.701 222.969 193.082 222.556 192.595 221.996C192.109 221.435 191.747 220.72 191.511 219.85C191.275 218.98 191.158 217.925 191.158 216.687C191.158 215.463 191.275 214.416 191.511 213.545C191.747 212.661 192.109 211.938 192.595 211.378C193.082 210.817 193.701 210.404 194.454 210.139C195.206 209.873 196.098 209.741 197.13 209.741C198.162 209.741 199.047 209.873 199.785 210.139C200.537 210.404 201.149 210.817 201.621 211.378C202.107 211.938 202.461 212.661 202.683 213.545C202.919 214.416 203.036 215.463 203.036 216.687ZM194.077 216.687C194.077 217.557 194.129 218.287 194.232 218.877C194.35 219.452 194.527 219.916 194.763 220.27C195.014 220.624 195.331 220.875 195.714 221.022C196.113 221.17 196.585 221.244 197.13 221.244C197.676 221.244 198.14 221.17 198.524 221.022C198.907 220.875 199.217 220.624 199.453 220.27C199.689 219.916 199.858 219.452 199.962 218.877C200.08 218.287 200.139 217.557 200.139 216.687C200.139 215.817 200.08 215.094 199.962 214.519C199.858 213.929 199.689 213.457 199.453 213.103C199.217 212.749 198.907 212.498 198.524 212.351C198.14 212.203 197.676 212.13 197.13 212.13C196.57 212.13 196.098 212.203 195.714 212.351C195.331 212.498 195.014 212.749 194.763 213.103C194.527 213.457 194.35 213.929 194.232 214.519C194.129 215.094 194.077 215.817 194.077 216.687ZM205.561 223.301V210.072L207.817 209.94L208.061 212.439H208.127C208.54 211.569 209.071 210.913 209.72 210.471C210.383 210.013 211.128 209.785 211.954 209.785C212.499 209.785 212.964 209.844 213.347 209.962L213.17 212.815C212.964 212.742 212.743 212.69 212.507 212.661C212.271 212.616 212.028 212.594 211.777 212.594C211.29 212.594 210.84 212.69 210.427 212.882C210.015 213.059 209.653 213.317 209.344 213.656C209.049 213.995 208.813 214.416 208.636 214.917C208.459 215.418 208.37 215.979 208.37 216.598V223.301H205.561ZM223.07 226.663V224.186L223.114 222.394L223.07 222.372C222.2 223.124 221.094 223.5 219.752 223.5C218.97 223.5 218.255 223.375 217.606 223.124C216.972 222.858 216.426 222.453 215.969 221.907C215.512 221.362 215.158 220.661 214.908 219.806C214.657 218.936 214.531 217.889 214.531 216.664C214.531 212.063 216.294 209.763 219.818 209.763C221.485 209.763 222.768 210.279 223.667 211.311H223.734L224.088 210.006H225.88V226.641L223.07 226.663ZM223.07 213.59C222.878 213.25 222.547 212.963 222.075 212.727C221.603 212.476 221.05 212.351 220.416 212.351C219.87 212.351 219.405 212.417 219.022 212.55C218.653 212.683 218.351 212.919 218.115 213.258C217.879 213.582 217.709 214.025 217.606 214.585C217.503 215.131 217.451 215.831 217.451 216.687C217.451 217.512 217.51 218.206 217.628 218.766C217.746 219.326 217.923 219.776 218.159 220.115C218.41 220.455 218.72 220.698 219.088 220.845C219.472 220.993 219.922 221.067 220.438 221.067C221.205 221.067 221.817 220.919 222.274 220.624C222.731 220.329 222.996 220.012 223.07 219.673V213.59ZM239.748 218.744C239.748 220.307 239.305 221.502 238.421 222.327C237.536 223.139 236.172 223.544 234.328 223.544C232.485 223.544 231.121 223.131 230.236 222.305C229.366 221.465 228.931 220.278 228.931 218.744V209.984H231.74V218.677C231.74 220.226 232.61 221 234.35 221C236.076 221 236.938 220.226 236.938 218.677V209.984H239.748V218.744ZM248.512 223.544C246.27 223.544 244.633 222.954 243.601 221.774C242.583 220.58 242.075 218.788 242.075 216.399C242.075 214.275 242.539 212.638 243.468 211.488C244.412 210.338 245.85 209.763 247.782 209.763C248.593 209.763 249.33 209.888 249.994 210.139C250.658 210.375 251.225 210.751 251.697 211.267C252.169 211.768 252.531 212.41 252.781 213.191C253.032 213.958 253.157 214.873 253.157 215.934C253.157 216.141 253.15 216.37 253.135 216.62C253.135 216.856 253.12 217.077 253.091 217.284H244.995C245.024 217.977 245.12 218.567 245.282 219.054C245.459 219.525 245.702 219.909 246.012 220.204C246.322 220.499 246.713 220.713 247.185 220.845C247.657 220.978 248.21 221.044 248.844 221.044C249.507 221.044 250.127 220.985 250.702 220.867C251.292 220.749 251.867 220.565 252.427 220.314L252.759 222.637C252.199 222.917 251.557 223.139 250.835 223.301C250.127 223.463 249.352 223.544 248.512 223.544ZM250.569 215.381C250.54 214.202 250.282 213.368 249.795 212.882C249.308 212.395 248.645 212.152 247.804 212.152C246.831 212.152 246.123 212.41 245.68 212.926C245.253 213.427 245.002 214.246 244.928 215.381H250.569ZM250.901 205.538L248.313 208.745H246.167L247.627 205.538H250.901Z" fill="white"/>
<path d="M209.443 34.1656C209.443 36.6284 209.082 38.5308 208.359 39.8728C207.637 41.2148 206.464 42.0701 204.842 42.4388L208.16 44.9385L204.577 45.8454L201.9 42.7706C200.72 42.7264 199.71 42.5273 198.869 42.1734C198.043 41.8194 197.358 41.2885 196.812 40.5807C196.266 39.8728 195.868 38.9879 195.618 37.9261C195.367 36.8643 195.241 35.6108 195.241 34.1656C195.241 32.6761 195.374 31.3931 195.64 30.3165C195.905 29.24 196.325 28.3551 196.901 27.662C197.476 26.9541 198.213 26.438 199.113 26.1135C200.012 25.7743 201.096 25.6048 202.364 25.6048C203.633 25.6048 204.709 25.7743 205.594 26.1135C206.494 26.438 207.224 26.9541 207.784 27.662C208.359 28.3551 208.779 29.24 209.045 30.3165C209.31 31.3931 209.443 32.6761 209.443 34.1656ZM206.258 34.1656C206.258 33.0153 206.191 32.0715 206.059 31.3341C205.926 30.582 205.705 29.9921 205.395 29.5644C205.085 29.1367 204.68 28.8418 204.178 28.6796C203.677 28.5026 203.065 28.4141 202.342 28.4141C201.634 28.4141 201.03 28.5026 200.528 28.6796C200.042 28.8418 199.644 29.1441 199.334 29.5865C199.024 30.0142 198.796 30.5967 198.648 31.3341C198.515 32.0715 198.449 33.0153 198.449 34.1656C198.449 35.3159 198.515 36.2671 198.648 37.0192C198.796 37.7565 199.024 38.3464 199.334 38.7889C199.644 39.2165 200.049 39.5188 200.55 39.6958C201.052 39.8728 201.657 39.9613 202.364 39.9613C203.072 39.9613 203.67 39.8728 204.156 39.6958C204.658 39.5188 205.063 39.2092 205.373 38.7667C205.683 38.3243 205.904 37.7344 206.036 36.9971C206.184 36.2449 206.258 35.3011 206.258 34.1656ZM222.829 37.904C222.829 39.4672 222.386 40.6618 221.502 41.4876C220.617 42.2987 219.253 42.7043 217.409 42.7043C215.566 42.7043 214.202 42.2913 213.317 41.4655C212.447 40.6249 212.012 39.4377 212.012 37.904V29.1441H214.821V37.8377C214.821 39.3861 215.691 40.1604 217.431 40.1604C219.157 40.1604 220.02 39.3861 220.02 37.8377V29.1441H222.829V37.904ZM231.593 42.7043C229.351 42.7043 227.714 42.1144 226.682 40.9346C225.665 39.7401 225.156 37.9483 225.156 35.5592C225.156 33.4356 225.62 31.7986 226.549 30.6483C227.493 29.498 228.931 28.9229 230.863 28.9229C231.674 28.9229 232.411 29.0482 233.075 29.299C233.739 29.5349 234.306 29.911 234.778 30.4271C235.25 30.9285 235.612 31.57 235.862 32.3516C236.113 33.1185 236.238 34.0328 236.238 35.0947C236.238 35.3011 236.231 35.5297 236.216 35.7804C236.216 36.0164 236.201 36.2376 236.172 36.444H228.076C228.105 37.1372 228.201 37.727 228.363 38.2137C228.54 38.6856 228.784 39.0691 229.093 39.364C229.403 39.6589 229.794 39.8728 230.266 40.0055C230.738 40.1382 231.291 40.2046 231.925 40.2046C232.588 40.2046 233.208 40.1456 233.783 40.0276C234.373 39.9097 234.948 39.7253 235.508 39.4746L235.84 41.7973C235.28 42.0775 234.638 42.2987 233.916 42.4609C233.208 42.6232 232.434 42.7043 231.593 42.7043ZM233.65 34.5416C233.621 33.3618 233.363 32.5286 232.876 32.042C232.389 31.5553 231.726 31.312 230.885 31.312C229.912 31.312 229.204 31.57 228.761 32.0862C228.334 32.5876 228.083 33.4061 228.009 34.5416H233.65ZM233.982 24.6978L231.394 27.9053H229.248L230.708 24.6978H233.982Z" fill="white"/>
<path d="M196.855 102.544C196.428 102.382 195.919 102.242 195.329 102.124C194.754 102.006 194.142 101.947 193.493 101.947C192.682 101.947 191.996 102.043 191.436 102.234C190.875 102.411 190.418 102.721 190.064 103.163C189.71 103.606 189.452 104.188 189.29 104.911C189.128 105.634 189.047 106.533 189.047 107.61C189.047 108.745 189.128 109.696 189.29 110.463C189.452 111.23 189.71 111.842 190.064 112.299C190.433 112.756 190.905 113.081 191.48 113.273C192.055 113.464 192.748 113.56 193.559 113.56C194.208 113.56 194.805 113.494 195.351 113.361C195.912 113.228 196.428 113.059 196.9 112.852L197.254 115.396C196.708 115.662 196.066 115.883 195.329 116.06C194.606 116.237 193.884 116.325 193.161 116.325C190.669 116.325 188.825 115.617 187.631 114.202C186.436 112.786 185.839 110.581 185.839 107.588C185.839 104.786 186.436 102.677 187.631 101.261C188.84 99.8452 190.743 99.1373 193.338 99.1373C194.016 99.1373 194.71 99.2111 195.417 99.3585C196.125 99.4913 196.715 99.6608 197.187 99.8673L196.855 102.544ZM210.718 109.401C210.718 110.64 210.6 111.695 210.364 112.565C210.142 113.435 209.789 114.15 209.302 114.71C208.83 115.271 208.218 115.684 207.466 115.949C206.728 116.2 205.844 116.325 204.811 116.325C203.779 116.325 202.887 116.2 202.135 115.949C201.383 115.684 200.763 115.271 200.277 114.71C199.79 114.15 199.429 113.435 199.193 112.565C198.957 111.695 198.839 110.64 198.839 109.401C198.839 108.177 198.957 107.13 199.193 106.26C199.429 105.375 199.79 104.653 200.277 104.092C200.763 103.532 201.383 103.119 202.135 102.854C202.887 102.588 203.779 102.455 204.811 102.455C205.844 102.455 206.728 102.588 207.466 102.854C208.218 103.119 208.83 103.532 209.302 104.092C209.789 104.653 210.142 105.375 210.364 106.26C210.6 107.13 210.718 108.177 210.718 109.401ZM201.759 109.401C201.759 110.272 201.81 111.002 201.913 111.591C202.031 112.167 202.208 112.631 202.444 112.985C202.695 113.339 203.012 113.59 203.396 113.737C203.794 113.885 204.266 113.958 204.811 113.958C205.357 113.958 205.821 113.885 206.205 113.737C206.588 113.59 206.898 113.339 207.134 112.985C207.37 112.631 207.54 112.167 207.643 111.591C207.761 111.002 207.82 110.272 207.82 109.401C207.82 108.531 207.761 107.809 207.643 107.234C207.54 106.644 207.37 106.172 207.134 105.818C206.898 105.464 206.588 105.213 206.205 105.066C205.821 104.918 205.357 104.845 204.811 104.845C204.251 104.845 203.779 104.918 203.396 105.066C203.012 105.213 202.695 105.464 202.444 105.818C202.208 106.172 202.031 106.644 201.913 107.234C201.81 107.809 201.759 108.531 201.759 109.401ZM207.93 98.2525L205.342 101.46H203.196L204.656 98.2525H207.93ZM228.085 116.016V107.366C228.085 106.57 227.879 105.987 227.466 105.619C227.053 105.235 226.478 105.044 225.74 105.044C225.091 105.044 224.553 105.221 224.126 105.575C223.698 105.928 223.484 106.474 223.484 107.211V116.016H220.675V107.211C220.675 106.415 220.461 105.855 220.033 105.53C219.62 105.191 219.082 105.021 218.418 105.021C217.946 105.021 217.489 105.132 217.047 105.353C216.619 105.575 216.287 105.869 216.051 106.238V116.016H213.242V102.765L215.255 102.632L215.742 103.96C216.199 103.488 216.722 103.126 217.312 102.876C217.902 102.61 218.522 102.478 219.17 102.478C220.866 102.478 222.054 103.112 222.732 104.38C223.16 103.716 223.69 103.237 224.325 102.942C224.973 102.632 225.696 102.478 226.492 102.478C227.141 102.478 227.731 102.581 228.262 102.787C228.808 102.979 229.272 103.281 229.656 103.694C230.054 104.092 230.356 104.594 230.563 105.198C230.784 105.803 230.895 106.511 230.895 107.322V116.016H228.085ZM245.087 109.401C245.087 110.64 244.969 111.695 244.733 112.565C244.512 113.435 244.158 114.15 243.671 114.71C243.2 115.271 242.588 115.684 241.835 115.949C241.098 116.2 240.213 116.325 239.181 116.325C238.149 116.325 237.256 116.2 236.504 115.949C235.752 115.684 235.133 115.271 234.646 114.71C234.159 114.15 233.798 113.435 233.562 112.565C233.326 111.695 233.208 110.64 233.208 109.401C233.208 108.177 233.326 107.13 233.562 106.26C233.798 105.375 234.159 104.653 234.646 104.092C235.133 103.532 235.752 103.119 236.504 102.854C237.256 102.588 238.149 102.455 239.181 102.455C240.213 102.455 241.098 102.588 241.835 102.854C242.588 103.119 243.2 103.532 243.671 104.092C244.158 104.653 244.512 105.375 244.733 106.26C244.969 107.13 245.087 108.177 245.087 109.401ZM236.128 109.401C236.128 110.272 236.18 111.002 236.283 111.591C236.401 112.167 236.578 112.631 236.814 112.985C237.065 113.339 237.382 113.59 237.765 113.737C238.163 113.885 238.635 113.958 239.181 113.958C239.727 113.958 240.191 113.885 240.575 113.737C240.958 113.59 241.268 113.339 241.504 112.985C241.74 112.631 241.909 112.167 242.012 111.591C242.13 111.002 242.189 110.272 242.189 109.401C242.189 108.531 242.13 107.809 242.012 107.234C241.909 106.644 241.74 106.172 241.504 105.818C241.268 105.464 240.958 105.213 240.575 105.066C240.191 104.918 239.727 104.845 239.181 104.845C238.621 104.845 238.149 104.918 237.765 105.066C237.382 105.213 237.065 105.464 236.814 105.818C236.578 106.172 236.401 106.644 236.283 107.234C236.18 107.809 236.128 108.531 236.128 109.401Z" fill="white"/>
</svg>

<svg xmlns="http://www.w3.org/2000/svg" width="432" height="432" fill="none"><circle cx="215.68" cy="215.68" r="215.68" fill="#24719C" fill-opacity=".84"/><circle cx="215.678" cy="215.678" r="148.764" fill="#4B98C3" fill-opacity=".77" stroke="#F7F7F7" stroke-width="6.083"/><circle cx="215.402" cy="215.402" r="75.488" fill="#7EC5EE" fill-opacity=".83" stroke="#F7F7F7" stroke-width="6.083"/><path fill="#fff" d="M189.6 212.196q0 2.587-1.437 3.96-1.439 1.371-4.712 1.371h-2.699v5.774h-3.053V206.71h5.752q3.273 0 4.712 1.349 1.437 1.328 1.437 4.137m-3.141-.022q0-.82-.177-1.349a1.8 1.8 0 0 0-.531-.885q-.353-.332-.929-.465-.575-.155-1.371-.155h-2.699v5.708h2.699q.774 0 1.327-.111.575-.133.951-.442.376-.333.553-.885.177-.554.177-1.416m16.577 4.513q0 1.858-.353 3.163-.333 1.305-1.062 2.146-.708.84-1.836 1.238-1.107.376-2.655.376t-2.676-.376q-1.129-.398-1.859-1.238-.73-.841-1.084-2.146-.353-1.306-.353-3.163 0-1.836.353-3.142.355-1.326 1.084-2.167t1.859-1.239q1.128-.398 2.676-.398t2.655.398q1.128.397 1.836 1.239.729.84 1.062 2.167.353 1.306.353 3.142m-8.959 0q0 1.305.155 2.19.177.862.531 1.393.376.531.951.752.599.222 1.416.222.819 0 1.394-.222.575-.22.929-.752.354-.53.509-1.393.177-.885.177-2.19t-.177-2.168q-.155-.885-.509-1.416a1.93 1.93 0 0 0-.929-.752q-.575-.221-1.394-.221-.84 0-1.416.221-.575.22-.951.752-.354.531-.531 1.416-.155.863-.155 2.168m11.484 6.614v-13.229l2.256-.132.244 2.499h.066q.62-1.305 1.593-1.968a3.84 3.84 0 0 1 2.234-.686q.818 0 1.393.177l-.177 2.853a3 3 0 0 0-.663-.154 4 4 0 0 0-.73-.067q-.73 0-1.35.288a3.1 3.1 0 0 0-1.083.774q-.442.509-.708 1.261a5 5 0 0 0-.266 1.681v6.703zm17.509 3.362v-2.477l.044-1.792-.044-.022q-1.305 1.128-3.318 1.128a5.9 5.9 0 0 1-2.146-.376 4.26 4.26 0 0 1-1.637-1.217q-.686-.818-1.061-2.101-.377-1.305-.377-3.142 0-6.901 5.287-6.901 2.5 0 3.849 1.548h.067l.354-1.305h1.792v16.635zm0-13.073q-.287-.51-.995-.863-.708-.376-1.659-.376-.82 0-1.394.199a1.85 1.85 0 0 0-.907.708q-.354.487-.509 1.327-.155.819-.155 2.102 0 1.238.177 2.079.177.84.531 1.349.377.51.929.73.576.222 1.35.222 1.15 0 1.836-.443.685-.442.796-.951zm16.678 5.154q0 2.345-1.327 3.583-1.327 1.218-4.093 1.217-2.764 0-4.092-1.239-1.305-1.26-1.305-3.561v-8.76h2.809v8.693q0 2.323 2.61 2.323 2.588 0 2.588-2.323v-8.693h2.81zm8.764 4.8q-3.363 0-4.911-1.77-1.526-1.791-1.526-5.375 0-3.186 1.393-4.911 1.416-1.725 4.314-1.725 1.216 0 2.212.376a4.16 4.16 0 0 1 1.703 1.128q.709.752 1.084 1.924.376 1.151.376 2.743 0 .31-.022.686 0 .354-.044.664h-8.096q.044 1.04.287 1.77.265.707.73 1.15t1.173.641q.708.2 1.659.199.995 0 1.858-.177a8 8 0 0 0 1.725-.553l.332 2.323q-.84.42-1.924.664-1.062.243-2.323.243m2.057-8.163q-.043-1.77-.774-2.499-.73-.73-1.991-.73-1.46 0-2.124.774-.64.752-.752 2.455zm.332-9.843-2.588 3.207h-2.146l1.46-3.207zM209.443 34.166q0 3.694-1.084 5.707-1.083 2.013-3.517 2.566l3.318 2.5-3.583.906-2.677-3.074q-1.77-.067-3.031-.598a5.1 5.1 0 0 1-2.057-1.592q-.819-1.062-1.194-2.655-.377-1.593-.377-3.76 0-2.235.399-3.85.397-1.613 1.261-2.654a4.95 4.95 0 0 1 2.212-1.549q1.349-.508 3.251-.508 1.903 0 3.23.508 1.35.487 2.19 1.549.862 1.04 1.261 2.655t.398 3.849m-3.185 0q0-1.725-.199-2.832-.2-1.128-.664-1.77a2.37 2.37 0 0 0-1.217-.884q-.752-.266-1.836-.266-1.061 0-1.814.266a2.34 2.34 0 0 0-1.194.907q-.465.641-.686 1.747-.2 1.106-.199 2.832 0 1.725.199 2.853.221 1.106.686 1.77.465.642 1.216.907.753.265 1.814.265 1.062 0 1.792-.265a2.45 2.45 0 0 0 1.217-.93q.465-.663.663-1.769.222-1.128.222-2.831m16.571 3.738q0 2.345-1.327 3.584-1.327 1.216-4.093 1.216-2.764 0-4.092-1.239-1.305-1.26-1.305-3.561v-8.76h2.809v8.694q0 2.322 2.61 2.322 2.589 0 2.589-2.322v-8.694h2.809zm8.764 4.8q-3.363 0-4.911-1.77-1.526-1.791-1.526-5.375 0-3.185 1.393-4.91 1.416-1.726 4.314-1.726 1.216 0 2.212.376a4.16 4.16 0 0 1 1.703 1.128q.709.753 1.084 1.925.376 1.15.376 2.743 0 .31-.022.685 0 .354-.044.664h-8.096q.044 1.04.287 1.77.266.708.73 1.15.465.443 1.173.642.708.198 1.659.199.995 0 1.858-.177a8 8 0 0 0 1.725-.553l.332 2.322q-.84.42-1.924.664-1.062.243-2.323.243m2.057-8.162q-.043-1.77-.774-2.5-.73-.73-1.991-.73-1.46 0-2.124.774-.64.753-.752 2.456zm.332-9.844-2.588 3.207h-2.146l1.46-3.207zM196.855 102.544a10 10 0 0 0-1.526-.42 9 9 0 0 0-1.836-.177q-1.217 0-2.057.287a2.8 2.8 0 0 0-1.372.929q-.531.664-.774 1.748t-.243 2.699q0 1.703.243 2.853t.774 1.836q.554.686 1.416.974t2.079.287q.973 0 1.792-.199a9 9 0 0 0 1.549-.509l.354 2.544a9.4 9.4 0 0 1-1.925.664 9 9 0 0 1-2.168.265q-3.738 0-5.53-2.123t-1.792-6.614q0-4.203 1.792-6.327 1.814-2.124 5.707-2.124 1.018 0 2.079.222 1.062.199 1.77.508zm13.863 6.857q0 1.859-.354 3.164-.332 1.305-1.062 2.145-.708.842-1.836 1.239-1.106.376-2.655.376t-2.676-.376q-1.129-.397-1.858-1.239-.73-.84-1.084-2.145t-.354-3.164q0-1.836.354-3.141.354-1.327 1.084-2.168.73-.84 1.858-1.238 1.128-.399 2.676-.399t2.655.399q1.128.398 1.836 1.238.73.841 1.062 2.168.354 1.305.354 3.141m-8.959 0q0 1.306.154 2.19.177.864.531 1.394.376.531.952.752.597.222 1.415.221.818 0 1.394-.221.575-.22.929-.752.354-.53.509-1.394.177-.884.177-2.19 0-1.305-.177-2.167-.155-.885-.509-1.416a1.93 1.93 0 0 0-.929-.752q-.576-.222-1.394-.221-.84 0-1.415.221a2.05 2.05 0 0 0-.952.752q-.354.531-.531 1.416-.154.862-.154 2.167m6.171-11.148-2.588 3.207h-2.146l1.46-3.207zm20.155 17.763v-8.65q0-1.194-.619-1.747-.62-.576-1.726-.575-.974 0-1.614.531-.642.53-.642 1.636v8.805h-2.809v-8.805q0-1.194-.642-1.681-.62-.509-1.615-.509a3 3 0 0 0-1.371.332q-.642.332-.996.885v9.778h-2.809v-13.251l2.013-.133.487 1.328q.685-.708 1.57-1.084a4.5 4.5 0 0 1 1.858-.398q2.544 0 3.562 1.902.641-.996 1.593-1.438.973-.465 2.167-.464.974 0 1.77.309.819.288 1.394.907.597.598.907 1.504.332.908.332 2.124v8.694zm17.002-6.615q0 1.859-.354 3.164-.331 1.305-1.062 2.145-.707.842-1.836 1.239-1.106.376-2.654.376-1.549 0-2.677-.376-1.128-.397-1.858-1.239-.73-.84-1.084-2.145t-.354-3.164q0-1.836.354-3.141.354-1.327 1.084-2.168a4.3 4.3 0 0 1 1.858-1.238q1.129-.399 2.677-.399t2.654.399q1.13.398 1.836 1.238.73.841 1.062 2.168.354 1.305.354 3.141m-8.959 0q0 1.306.155 2.19.177.864.531 1.394.376.531.951.752.597.222 1.416.221.818 0 1.394-.221.575-.22.929-.752.354-.53.508-1.394.177-.884.177-2.19 0-1.305-.177-2.167-.154-.885-.508-1.416a1.93 1.93 0 0 0-.929-.752q-.576-.222-1.394-.221-.84 0-1.416.221-.575.22-.951.752-.354.531-.531 1.416-.155.862-.155 2.167"/></svg>
